static/assets/images/icons/correlation.svg

<svg width="256" height="256" viewBox="0 0 256 256" fill="none" xmlns="http://www.w3.org/2000/svg">
<path d="M76.2993 192.028V116.61C76.2993 97.8475 91.5277 82.6376 110.313 82.6376H118.476C125.99 82.6376 132.082 88.7216 132.082 96.2265V96.9059C132.082 104.411 125.99 110.495 118.476 110.495H113.714C108.079 110.495 103.51 115.058 103.51 120.686V185.233C103.51 192.738 109.602 198.822 117.116 198.822H187.184C194.698 198.822 200.789 192.738 200.789 185.233V96.2265C200.789 88.7216 206.88 82.6376 214.395 82.6376C221.909 82.6376 228 88.7216 228 96.2265V192.028C228 210.79 212.772 226 193.986 226H110.313C91.5277 226 76.2993 210.79 76.2993 192.028Z" fill="#040404"/>
<path d="M28 160.774V64.9721C28 46.2098 43.2284 31 62.0136 31H145.687C164.472 31 179.701 46.2098 179.701 64.9721V140.39C179.701 159.153 164.472 174.362 145.687 174.362H138.204C130.69 174.362 124.599 168.278 124.599 160.774C124.599 153.269 130.69 147.185 138.204 147.185H142.286C147.921 147.185 152.49 142.622 152.49 136.993V71.7666C152.49 64.2616 146.398 58.1777 138.884 58.1777H68.8163C61.3022 58.1777 55.2109 64.2616 55.2109 71.7665V160.774C55.2109 168.278 49.1195 174.362 41.6054 174.362C34.0914 174.362 28 168.278 28 160.774Z" fill="#040404"/>
</svg>

<svg xmlns="http://www.w3.org/2000/svg" fill="none" viewBox="0 0 256 256"><path fill="#040404" d="M76.3 192.028V116.61c0-18.763 15.228-33.972 34.013-33.972h8.163c7.514 0 13.606 6.084 13.606 13.588v.68c0 7.505-6.092 13.589-13.606 13.589h-4.762c-5.635 0-10.204 4.563-10.204 10.191v64.547c0 7.505 6.092 13.589 13.606 13.589h70.068c7.514 0 13.605-6.084 13.605-13.589V96.227c0-7.505 6.091-13.59 13.606-13.59S228 88.723 228 96.228v95.801C228 210.79 212.772 226 193.986 226h-83.673c-18.785 0-34.014-15.21-34.014-33.972"/><path fill="#040404" d="M28 160.774V64.972C28 46.21 43.228 31 62.014 31h83.673c18.785 0 34.014 15.21 34.014 33.972v75.418c0 18.763-15.229 33.972-34.014 33.972h-7.483c-7.514 0-13.605-6.084-13.605-13.588 0-7.505 6.091-13.589 13.605-13.589h4.082c5.635 0 10.204-4.563 10.204-10.192V71.767c0-7.505-6.092-13.59-13.606-13.59H68.816c-7.514 0-13.605 6.085-13.605 13.59v89.007c0 7.504-6.091 13.588-13.606 13.588S28 168.278 28 160.774"/></svg>
